build/img/play-hover.svg

<svg width="121" height="92" viewBox="0 0 121 92" fill="none" xmlns="http://www.w3.org/2000/svg">
<path d="M116.55 21.6823C116.55 21.6823 115.467 13.2969 111.979 9.58336C107.649 4.79169 102.718 4.67188 100.553 4.43229C84.5556 3.23438 60.5 3.23438 60.5 3.23438H60.3797C60.3797 3.23438 36.324 3.23438 20.327 4.43229C18.0417 4.67188 13.2306 4.79169 8.90054 9.58336C5.53275 13.2969 4.32996 21.6823 4.32996 21.6823C4.32996 21.6823 3.24747 31.5052 3.24747 41.3282V50.5521C3.24747 60.375 4.32996 70.198 4.32996 70.198C4.32996 70.198 5.41247 78.5833 8.90054 82.2969C13.2306 87.0886 19.0039 86.9688 21.5298 87.448C30.6709 88.4063 60.5 88.6459 60.5 88.6459C60.5 88.6459 84.5556 88.6459 100.553 87.448C102.838 87.2084 107.649 87.0886 111.979 82.2969C115.347 78.5833 116.55 70.198 116.55 70.198C116.55 70.198 117.632 60.375 117.632 50.5521V41.3282C117.632 31.5052 116.55 21.6823 116.55 21.6823Z" fill="#63D1BB"/>
<path d="M60.3797 92C59.1769 92 30.3101 91.6406 21.169 90.8021H21.0487H20.9284C20.5676 90.6823 20.0865 90.6823 19.6054 90.5625C16.5984 90.2031 10.9453 89.4844 6.61531 84.5729C2.52584 80.2604 1.32306 71.6354 1.20278 70.6771C1.20278 70.3177 0 60.4948 0 50.6719V41.4479C0 31.5052 1.08252 21.8021 1.08252 21.4427V21.3229C1.20279 20.3646 2.52586 11.8594 6.49504 7.42706C11.3062 2.15623 16.7187 1.5573 19.3648 1.31772C19.6054 1.31772 19.8459 1.31771 19.9662 1.19792H20.0865C36.0835 0 60.1392 0 60.3797 0H60.5C60.7406 0 84.7962 0 100.793 1.19792H100.914C101.154 1.19792 101.274 1.19792 101.515 1.31772C104.161 1.5573 109.574 2.15623 114.385 7.42706C118.474 11.7396 119.677 20.3646 119.797 21.3229C119.797 21.6823 121 31.5052 121 41.4479V50.6719C121 60.6146 119.917 70.3177 119.797 70.6771V70.7969C119.677 71.7552 118.354 80.3802 114.385 84.6927C109.574 89.9635 104.161 90.5625 101.515 90.8021C101.274 90.8021 101.034 90.8021 100.914 90.9219H100.793C84.7962 92 60.6203 92 60.3797 92ZM22.011 84.3333C31.0318 85.1719 59.5378 85.5313 60.5 85.5313C61.342 85.5313 84.676 85.5313 100.192 84.3333C100.432 84.3333 100.673 84.3333 100.914 84.2135C103.079 83.974 106.446 83.6146 109.574 80.2604C111.739 77.8646 113.062 71.9948 113.302 69.9583C113.422 69.3594 114.385 59.8958 114.385 50.6719V41.4479C114.385 32.1042 113.302 22.7604 113.182 22.1615C112.821 19.2865 111.498 14.0156 109.453 11.9792C106.326 8.50521 102.958 8.2656 100.793 8.02602C100.553 8.02602 100.312 8.02605 100.072 7.90626C84.3151 6.70834 60.6203 6.70834 60.3797 6.70834H60.2594C60.0189 6.70834 36.2038 6.70834 20.5676 7.90626C20.327 7.90626 20.0865 7.90623 19.8459 8.02602C17.6809 8.2656 14.3131 8.625 11.1859 11.9792C9.0209 14.375 7.69783 20.2448 7.45727 22.2813C7.33699 23 6.37475 32.3437 6.37475 41.5677V50.7917C6.37475 60.0156 7.45727 69.4792 7.45727 70.0781C7.81811 72.9531 9.14117 78.224 11.1859 80.2604C13.9523 83.375 17.5607 83.8542 20.2068 84.2135C20.9284 84.0938 21.4096 84.2135 22.011 84.3333Z" fill="white"/>
<path d="M46.0664 24.5571V67.3227L81.9093 45.9998L46.0664 24.5571Z" fill="white"/>
</svg>

<svg width="121" height="92" fill="none" xmlns="http://www.w3.org/2000/svg"><path d="M116.55 21.682s-1.083-8.385-4.571-12.099c-4.33-4.791-9.261-4.911-11.426-5.15-15.997-1.2-40.053-1.2-40.053-1.2h-.12s-24.056 0-40.053 1.198c-2.285.24-7.096.36-11.426 5.151-3.368 3.714-4.571 12.1-4.571 12.1s-1.083 9.822-1.083 19.645v9.224c0 9.823 1.083 19.646 1.083 19.646s1.082 8.385 4.57 12.099c4.33 4.792 10.104 4.672 12.63 5.151 9.14.958 38.97 1.198 38.97 1.198s24.056 0 40.053-1.198c2.285-.24 7.096-.36 11.426-5.151 3.368-3.714 4.571-12.099 4.571-12.099s1.082-9.823 1.082-19.646v-9.224c0-9.823-1.082-19.646-1.082-19.646z" fill="#63D1BB"/><path d="M60.38 92c-1.203 0-30.07-.36-39.211-1.198h-.24c-.361-.12-.842-.12-1.324-.24-3.007-.359-8.66-1.078-12.99-5.99-4.09-4.312-5.292-12.937-5.412-13.895C1.203 70.317 0 60.495 0 50.672v-9.224c0-9.943 1.083-19.646 1.083-20.005v-.12c.12-.958 1.443-9.464 5.412-13.896 4.811-5.27 10.224-5.87 12.87-6.11.24 0 .48 0 .601-.12h.12C36.084 0 60.14 0 60.38 0h.12c.24 0 24.296 0 40.293 1.198h.121c.24 0 .36 0 .601.12 2.646.24 8.059.838 12.87 6.11 4.089 4.312 5.292 12.937 5.412 13.895 0 .36 1.203 10.182 1.203 20.125v9.224c0 9.943-1.083 19.646-1.203 20.005v.12c-.12.958-1.443 9.583-5.412 13.896-4.811 5.27-10.224 5.87-12.87 6.11-.241 0-.481 0-.601.119h-.121C84.796 92 60.62 92 60.38 92zm-38.37-7.667c9.02.839 37.527 1.198 38.489 1.198.842 0 24.176 0 39.692-1.198.24 0 .481 0 .722-.12 2.165-.239 5.532-.598 8.66-3.953 2.165-2.395 3.488-8.265 3.728-10.302.12-.599 1.083-10.062 1.083-19.286v-9.224c0-9.344-1.083-18.688-1.203-19.287-.361-2.875-1.684-8.145-3.729-10.182-3.127-3.474-6.495-3.713-8.66-3.953-.24 0-.481 0-.721-.12C84.315 6.708 60.62 6.708 60.38 6.708h-.12c-.241 0-24.056 0-39.692 1.198-.241 0-.482 0-.722.12-2.165.24-5.533.599-8.66 3.953-2.165 2.396-3.488 8.266-3.729 10.302-.12.719-1.082 10.063-1.082 19.287v9.224c0 9.224 1.082 18.687 1.082 19.286.361 2.875 1.684 8.146 3.729 10.182 2.766 3.115 6.375 3.594 9.02 3.953.722-.12 1.204 0 1.805.12z" fill="#fff"/><path d="M46.066 24.557v42.766L81.91 46 46.066 24.557z" fill="#fff"/></svg>
